{
  "compressionlevel": -1,
  "height": 1254,
  "infinite": false,
  "layers": [
    {
      "id": 1,
      "name": "Terrain",
      "type": "objectgroup",
      "draworder": "index",
      "opacity": 1,
      "visible": true,
      "x": 0,
      "y": 0,
      "objects": [
        {
          "id": 1,
          "name": "forest-ground",
          "type": "",
          "x": 0,
          "y": 0,
          "width": 1254,
          "height": 1254,
          "rotation": 0,
          "visible": true,
          "gid": 1,
          "properties": [
            {
              "name": "role",
              "type": "string",
              "value": "terrain"
            }
          ]
        }
      ]
    },
    {
      "id": 2,
      "name": "Clearing focus",
      "type": "objectgroup",
      "draworder": "index",
      "opacity": 1,
      "visible": true,
      "x": 0,
      "y": 0,
      "objects": [
        {
          "id": 2,
          "name": "clearing-focus",
          "type": "",
          "x": 455,
          "y": 480,
          "width": 350,
          "height": 350,
          "rotation": 0,
          "visible": true,
          "properties": [
            {
              "name": "role",
              "type": "string",
              "value": "focus"
            }
          ]
        }
      ]
    }
  ],
  "nextlayerid": 3,
  "nextobjectid": 3,
  "orientation": "orthogonal",
  "properties": [
    {
      "name": "worldId",
      "type": "string",
      "value": "forest"
    }
  ],
  "renderorder": "right-down",
  "tiledversion": "1.12.2",
  "tileheight": 1,
  "tilesets": [
    {
      "columns": 0,
      "firstgid": 1,
      "grid": {
        "height": 1,
        "orientation": "orthogonal",
        "width": 1
      },
      "name": "Forest image collection",
      "objectalignment": "topleft",
      "tilecount": 1,
      "tileheight": 2560,
      "tilewidth": 2560,
      "tiles": [
        {
          "id": 0,
          "image": "../../public/world/prototype/forest-ground.webp",
          "imagewidth": 2560,
          "imageheight": 2560,
          "properties": [
            {
              "name": "role",
              "type": "string",
              "value": "terrain"
            }
          ]
        }
      ]
    }
  ],
  "tilewidth": 1,
  "type": "map",
  "version": "1.10",
  "width": 1254
}
